public/static/icons/editor/remove.svg

<svg height="24" viewBox="0 0 24 24" width="24" xmlns="http://www.w3.org/2000/svg"><path d="m12.6118335 2.06669945-11.15696751 11.15696745c-1.27315465 1.2731547-1.27315465 3.333594 0 4.6067486l4.71471847 4.750709c.21144331.2069437.49486598.3194132.79178429.3239128h15.96079375c.2886943 0 .5227273-.234033.5227273-.5227273v-1.257919c0-.2886943-.234033-.5227272-.5227273-.5227272h-9.0146811l8.6376526-8.6376527c1.2731547-1.2731546 1.2731547-3.33359395 0-4.6067486l-5.3265519-5.29056145c-.6343267-.63432671-1.4666011-.97173833-2.3033735-.97173833-.836774 0-1.6690484.33740841-2.3033751.97173673zm-3.61556885 8.33318295 5.17969435 5.1796943c.4082754.4082754.4082754 1.0702206 0 1.478496l-3.3904846 3.3904846c-.0980304.0980304-.2309881.1531033-.369624.1531033h-2.73409732c-.13863589 0-.27159362-.0550729-.369624-.1531033l-4.23770403-4.237704c-.34190641-.3419065-.34190641-1.0257209 0-1.3676289l4.44334348-4.4433421c.40827553-.40827519 1.07022065-.40827514 1.47849612.0000001z" fill-rule="evenodd"/></svg>

<svg xmlns="http://www.w3.org/2000/svg" width="24" height="24" viewBox="0 0 24 24">
  <path fill-rule="evenodd" d="M12.6118335,2.06669945 L1.45486599,13.2236669 C0.181711338,14.4968216 0.181711338,16.5572609 1.45486599,17.8304155 L6.16958446,22.5811245 C6.38102777,22.7880682 6.66445044,22.9005377 6.96136875,22.9050373 L22.9221625,22.9050373 C23.2108568,22.9050373 23.4448898,22.6710043 23.4448898,22.38231 L23.4448898,21.124391 C23.4448898,20.8356967 23.2108568,20.6016638 22.9221625,20.6016638 L13.9074814,20.6016638 L13.9074814,20.6016638 L22.545134,11.9640111 C23.8182887,10.6908565 23.8182887,8.63041715 22.545134,7.3572625 L17.2185821,2.06670105 C16.5842554,1.43237434 15.751981,1.09496272 14.9152086,1.09496272 C14.0784346,1.09496272 13.2461602,1.43237113 12.6118335,2.06669945 Z M8.99626465,10.3998824 L14.175959,15.5795767 C14.5842344,15.9878521 14.5842344,16.6497973 14.175959,17.0580727 L10.7854744,20.4485573 C10.687444,20.5465877 10.5544863,20.6016606 10.4158504,20.6016606 L7.68175308,20.6016606 C7.54311719,20.6016606 7.41015946,20.5465877 7.31212908,20.4485573 L3.07442505,16.2108533 L3.07442505,16.2108533 C2.73251864,15.8689468 2.73251864,15.1851324 3.07442505,14.8432244 L7.51776853,10.3998823 C7.92604406,9.99160711 8.58798918,9.99160716 8.99626465,10.3998824 Z"/>
</svg>
